X:1
T:Title
%%score { ( 1 3 ) | ( 2 4 ) }
L:1/8
M:4/4
K:Ab
V:1 treble nm="Grand Piano"
V:3 treble 
V:2 bass 
V:4 bass 
V:1
 z4 z2[Q:1/4=100] E>A | c2 c2 c2 c2 | c6[K:bass][K:treble] z2 | c2 c2 c2 c2 | %4
 c6[K:bass][K:treble] z2 | z2 B4[K:bass][K:treble] z2 | z2 B4[K:bass][K:treble] z2 | B2 A2 A2 F2 | %8
 E2 E2 [EA]2 B2 | z2 [CEc]4[K:bass] z2 | z2 [CEc]4[K:bass][K:treble] z2 | B2 A2 A2 F2 | %12
 E2 E2 [EA]2 B2 | c2 z2[K:bass] C,2[K:treble] [FAd]2 | [EGc]2 [DGB]4 [FAd]2 | %15
 [EGc]2 [EGc]4 [DGB]2 | [CEA]8 |] %17
V:2
 z4 z2 E,>A, | [A,CE]2 [G,CE]2 [F,CE]2 [=E,CE]2 | [E,CE]6 z2 | [A,CE]2 [G,CE]2 [F,CE]2 [=E,CE]2 | %4
 [E,CE]6 z2 | [E,G,E]2 [E,G,D]4 [E,A,F]2 | [E,G,E]2 [E,G,D]4 [E,G,E][E,G,E] | %7
 [A,CE]2 [A,CE]2 [A,DF]2 [A,D]2 | [A,C]2[K:bass] E,2 [C,E,]2 [E,G,E]2 | z2 A,4 z2 | %10
 [A,E]2 A,4 [E,A,CE]2 | [F,A,=D]2 [F,B,D]2 [F,B,D]2 [=D,A,]2 | [E,A,C]2 E,2 [C,E,]2 [E,G,E]2 | %13
 [A,E]2 A,4 [D,A,]2 | z2 E,4 z2 | z2 E,4 z2 | A,,8 |] %17
V:3
 x8 | x8 | z2[K:bass] C,2 A,,2[K:treble] E>A | x8 | z2[K:bass] C,2 A,,2[K:treble] d2 | %5
 c2 z2[K:bass] E,,2[K:treble] d2 | c2 z2[K:bass] E,,2[K:treble] cc | x8 | x8 | %9
 c2 z2[K:bass] C,2 E2 | c2 z2[K:bass] C,2[K:treble] c2 | x8 | x8 | z2 [CEc]4[K:bass][K:treble] z2 | %14
 x8 | x8 | x8 |] %17
V:4
 x8 | x8 | z2 C,,2 A,,,2 E,>A, | x8 | z2 C,,2 A,,,2 [A,F]2 | x8 | x8 | x8 | x2[K:bass] x6 | %9
 [A,E]2 A,,2 z2 E,2 | z2 A,,2 z4 | x8 | x8 | z2 A,,2 z4 | E,2 z2 E,,2 E,2 | E,2 z2 E,,2 E,2 | %16
 z4 z B,,,3 |] %17

